<?xml version="1.0" encoding="UTF-8"?>
<map version="1.10" tiledversion="1.12.0" orientation="orthogonal" renderorder="right-down" width="30" height="20" tilewidth="32" tileheight="32" infinite="0" nextlayerid="4" nextobjectid="1">
 <tileset firstgid="1" source="Pack.tsx"/>
 <layer id="1" name="Capa de patrones 1" width="30" height="20">
  <data encoding="csv">
0,0,0,0,0,0,0,0,0,0,0,0,0,0,0,0,0,0,0,0,0,0,0,0,0,0,0,0,0,0,
0,0,0,0,0,0,0,0,0,0,0,0,0,0,0,0,0,0,0,0,0,0,0,0,0,0,0,0,0,0,
0,0,0,0,0,0,0,0,0,0,0,0,0,0,0,0,0,0,0,0,0,0,0,0,0,0,0,0,0,0,
0,0,0,0,0,0,0,0,0,0,0,0,0,0,0,0,0,0,0,0,0,0,0,0,0,0,0,0,0,0,
0,0,0,0,0,0,0,97,98,99,100,101,102,103,104,105,106,107,108,109,110,111,112,0,0,0,0,0,0,0,
0,0,0,0,0,0,0,113,119,115,122,117,118,119,120,121,122,123,124,119,200,122,128,0,0,0,0,0,0,0,
0,0,0,0,0,0,0,129,215,217,132,133,134,135,200,217,138,139,140,141,200,218,144,0,0,0,0,0,0,0,
0,0,0,0,0,0,0,145,151,147,154,149,150,151,152,153,154,155,156,151,232,154,160,0,0,0,0,0,0,0,
0,0,0,0,0,0,0,161,162,163,164,165,166,167,151,169,170,171,172,173,174,175,176,0,0,0,0,0,0,0,
0,0,0,0,0,0,0,91,91,91,91,91,182,183,184,185,186,187,188,189,190,191,192,0,0,0,0,0,0,0,
0,0,0,0,0,0,0,91,91,91,91,91,198,199,200,201,122,203,204,205,206,207,208,0,0,0,0,0,0,0,
0,0,0,0,0,0,0,91,91,91,91,91,214,215,216,217,218,219,220,221,222,223,224,0,0,0,0,0,0,0,
0,0,0,0,0,0,0,91,91,91,91,91,230,151,232,233,234,235,236,237,238,239,240,0,0,0,0,0,0,0,
0,0,0,0,0,0,0,91,91,91,91,91,246,247,248,249,250,251,252,253,254,255,256,0,0,0,0,0,0,0,
0,0,0,0,0,0,0,0,0,0,0,0,0,0,0,0,0,0,0,0,0,0,0,0,0,0,0,0,0,0,
0,0,0,0,0,0,0,0,0,0,0,0,0,0,0,0,0,0,0,0,0,0,0,0,0,0,0,0,0,0,
0,0,0,0,0,0,0,0,0,0,0,0,0,0,0,0,0,0,0,0,0,0,0,0,0,0,0,0,0,0,
0,0,0,0,0,0,0,0,0,0,0,0,0,0,0,0,0,0,0,0,0,0,0,0,0,0,0,0,0,0,
0,0,0,0,0,0,0,0,0,0,0,0,0,0,0,0,0,0,0,0,0,0,0,0,0,0,0,0,0,0,
0,0,0,0,0,0,0,0,0,0,0,0,0,0,0,0,0,0,0,0,0,0,0,0,0,0,0,0,0,0
</data>
 </layer>
</map>
